static/img/menus/ico-air-resend.svg

<svg width="16" height="16" viewBox="0 0 16 16" fill="none" xmlns="http://www.w3.org/2000/svg">
<path d="M14.499 7.04297C14.7787 7.04341 15.0062 7.2711 15.0059 7.55078C15.0038 8.83059 14.4938 10.0579 13.5889 10.9629C12.684 11.8676 11.4573 12.3768 10.1777 12.3789H2.75391L3.50977 13.1357C3.70757 13.3336 3.70758 13.6537 3.50977 13.8516C3.31191 14.0489 2.99161 14.0492 2.79395 13.8516L1.17285 12.2305C1.10379 12.1613 1.05413 12.0723 1.03418 11.9727C1.02751 11.9398 1.02443 11.906 1.02441 11.8721C1.02443 11.8384 1.02862 11.805 1.03516 11.7725C1.05064 11.6953 1.08467 11.6256 1.13086 11.5654C1.14432 11.5478 1.15703 11.5295 1.17285 11.5137L2.79395 9.89356C2.99172 9.69578 3.31193 9.69589 3.50977 9.89356C3.70756 10.0914 3.70759 10.4116 3.50977 10.6094L2.75293 11.3662H10.1758C11.1875 11.3646 12.1576 10.9615 12.873 10.2461C13.5883 9.53069 13.9916 8.56053 13.9932 7.54883C13.9938 7.26947 14.2197 7.04293 14.499 7.04297ZM12.5205 1.24805C12.7184 1.05041 13.0395 1.05028 13.2373 1.24805L14.8574 2.86914C14.861 2.87274 14.8637 2.87718 14.8672 2.88086C14.881 2.89556 14.8932 2.91146 14.9053 2.92774C14.9148 2.94065 14.9244 2.95323 14.9326 2.9668C14.9402 2.9794 14.9466 2.99258 14.9531 3.00586C14.959 3.01785 14.9649 3.02967 14.9697 3.04199C14.9924 3.09956 15.0059 3.16196 15.0059 3.22754C15.0058 3.29283 14.9923 3.35476 14.9697 3.41211C14.9661 3.42147 14.9613 3.43028 14.957 3.43945C14.9487 3.4573 14.9399 3.47456 14.9297 3.49121C14.9233 3.50158 14.9164 3.5115 14.9092 3.52149C14.8955 3.54058 14.8804 3.55822 14.8643 3.5752C14.8616 3.57803 14.8602 3.58217 14.8574 3.58496L13.2373 5.20703C13.0395 5.40461 12.7183 5.4046 12.5205 5.20703C12.3227 5.00926 12.3229 4.68808 12.5205 4.49024L13.2764 3.73438H5.85547L5.66504 3.73926C4.72254 3.78752 3.82876 4.18314 3.1582 4.85352C2.44283 5.56888 2.03975 6.53911 2.03809 7.55078C2.03747 7.8304 1.80993 8.05708 1.53027 8.05664C1.25065 8.05603 1.02398 7.82849 1.02441 7.54883C1.0265 6.26908 1.53651 5.04266 2.44141 4.1377C3.34644 3.23266 4.5736 2.72271 5.85352 2.7207H13.2764L12.5205 1.96484C12.3227 1.76702 12.3227 1.44588 12.5205 1.24805Z" fill="currentColor"/>
</svg>

<svg xmlns="http://www.w3.org/2000/svg" width="16" height="16" fill="none" viewBox="0 0 16 16"><path fill="currentColor" d="M14.499 7.043c.28 0 .507.228.507.508a4.84 4.84 0 0 1-4.828 4.828H2.754l.756.757a.506.506 0 1 1-.716.716L1.173 12.23a.5.5 0 0 1-.138-.457.5.5 0 0 1 .096-.208q.019-.026.042-.051l1.621-1.62a.506.506 0 1 1 .716.715l-.757.757h7.423a3.824 3.824 0 0 0 3.817-3.817c0-.28.227-.506.506-.506M12.52 1.248a.507.507 0 0 1 .717 0l1.62 1.621.01.012q.02.022.038.047.015.019.028.039l.02.039.017.036a.5.5 0 0 1 0 .37l-.013.027a.5.5 0 0 1-.093.136l-.007.01-1.62 1.622a.508.508 0 0 1-.716-.717l.755-.756h-7.42l-.191.005a3.82 3.82 0 0 0-3.627 3.812.507.507 0 0 1-1.014-.002 4.836 4.836 0 0 1 4.83-4.828h7.422l-.755-.756a.507.507 0 0 1 0-.717"/></svg>
